!!!OTL: Es ist sich nichts Schöneres zu gr&uuml;&szlig;en (1-43), S.110
!!!id: K1091
**kern
*clefG2
*k[b-]
*F:
{8c
=1
8f
8f
8f
8a
8f
16a
16a
=2
4cc
8cc
4a}
=3
{8cc
=4
8cc
8dd
8cc
8cc
8b-
8b-
=5
4.a}
=6
{4.cc
=7
8a
8cc
8cc
8dd
8cc
8b-
=8
4.a
4.g}
=9
{4.b-
8b-
8cc
8dd
=10
4cc
8b-
4a}
=11
{8cc
=12
8cc
8cc
8cc
8cc
8b-
8b-
=13
4.a}
=14
{4.cc
=15
8a
8cc
8cc
8dd
8cc
8b-
=16
4.a
4.g}
=17
{4.b-
8b-
8cc
8dd
=18
4cc
8b-
4a}
=19
{8cc
=20
8cc
8cc
8cc
8cc
8b-
8b-
=21
4.a}
4r
==
*-
!!!minrhy: 16
!!!meters: 6/8 ]  ZZ[8
!!!cut: Es ist sich nichts Schöneres zu gr&uuml;&szlig;en (1-43), S.110
!!!reg: Luxemburg
!!!trd: KINTZELE, Guillaume: An der Ucht, Bd. 1, Luxemburg 1926
!!!rhy1: X_  X_X_X_X_X_XX  X__X_X__
!!!rhy2: X_  X_X_X_X_X_X_  X__.
!!!key: K1091  16  F 6/8 ]  ZZ[8
!!!mod: SECHSTONSKALA DUR ?]  AMBITUS[9
!!!kad: 33233233
!!!akz: 1353_553_53632_4453_553_53632_4453_553_
!!!fot: 'a__b__c__d__bv_c__d__bv_
!!!for: 'a__b__bw_c__b__bw_c__bv_
!!!fok: '^a_\__Sd_^d_\__Sd_^d_\__
!! PHRAS[VORWIEGEND AUFTAKTIG]
!!!fkt: Untreue
!!!bem: in der Quelle mit einer 2. Stimme versehen
!! KINTZELE
!! PR[37] 2K[2] 2G[13] 3K[3] 3G[2] 4A[11] 4Ü[0] 5A[0] 6K[0] 6G[0]
!! 7K[0] 7G[0] 8A[0] MEHR[0] SI[30] ABS[63] SR[14] SP[16]
!! ST[16] 2k[2] 2g[17] 3k[10] 3g[2] 4d[2] 4ü[0] 5d[2] 6k[0] 6g[0]
!! 7k[0] 7g[0] 8d[0] mehr[0] si[33] dm[-3] sr[19] sp[14]
!! 1F[3] 2F[55] 3F[36] 4F[1] LF[0] 2P[3] 3P[1] 4P[0] TRI[0] DF[6] AB[67]
!! TF[0] U3K[0] U3[0] U4[0] U4Ü[0] U5[8] U6K[0] U6[0] U7K[0] U7[0]
!! N1[17] N2K[0] N2[20] N3K[0] N3[30] N4[5] N4Ü[0] N5[16] N6K[0] N6[5]
!!!n7k: 0] N7[0] O1[0] O2K[0] O2[0] O3K[0] O3[0] HÖ[0
!!!RNB: symbol: &szlig; = sz ligature (UTF-8: ÃŸ)
!!!RNB: symbol: &uuml;  = u umlaut (UTF-8: Ã¼)
